ghost/admin/public/assets/icons/ufo-attack.svg

<svg width="132" height="145" viewBox="0 0 132 145" xmlns="http://www.w3.org/2000/svg">
  <title>ufo-attack</title>
  <g stroke="#9BAEB8" fill="none" fill-rule="evenodd">
    <path d="M96.89 22.058c20.064 11.014 33.675 32.344 33.675 56.828 0 35.755-29.027 64.783-64.782 64.783C30.028 143.669 1 114.64 1 78.886c0-24.504 13.634-45.849 33.723-56.855"/>
    <path d="M17.303 121.752h96.915" stroke-width="1.5" stroke-linecap="round" stroke-linejoin="round"/>
    <path d="M22.04 126.182h87.44m-82.284 4.43h77.13m-70.656 4.429h64.18m-55.024 4.43h45.869" opacity=".6" stroke-linecap="round" stroke-linejoin="round"/>
    <g stroke-linecap="round" stroke-linejoin="round" stroke-width="1.5">
      <path d="M3.328 86.683h12.848v14.094h11.136v20.083"/>
      <path d="M23.294 100.431V94.57h20.825"/>
      <path d="M39.1 121.166v-18.8l5.351-5.352V60.562h10.841v36.181l5.24 5.24v19.4m15.588.031V79.745h12.938v11.17h5.286v30.692"/>
      <path d="M55.4 85.25h15.046v35.472m.234-18.004h5.356m.884-19.76h11.635M44.61 64.982h10.605M48.93 55.68l1.019-10.268.998 10.312m-.169 14.597v2.806m-1.923 4.611v2.806m1.923 4.611v2.806m-1.923 4.611v2.806m-3.603 9.362v2.806m-12.24-6.44v2.807m0 10.331v6.836m21.286-16.34v2.806M64.92 90.797v2.806m34.32 6.554v2.806m5.378-2.806v2.806m5.2-2.806v2.806m5.2-2.806v2.806m5.2-2.806v2.806m-20.978 4.474v2.806m5.378-2.806v2.806m5.2-2.806v2.806m5.2-2.806v2.806M65.251 98.95v2.807m0 5.087v2.806m0 5.103v2.806m-5.373-26.536v2.806M49.32 115.757v4.926m58.24-4.926v4.926M82.557 89.262v4.926m0 18.963v2.858m5.533-2.858v2.858m-66.262-10.736v2.806m0 4.421v2.806m-5.396-10.033v2.806m-5.76-16.304v2.806"/>
      <path d="M44.487 60.617c.168-2.835 2.523-5.085 5.399-5.085s5.231 2.25 5.399 5.085H44.487zM95.11 94.541h22.655l5.057-5.057h6.098"/>
    </g>
    <path stroke-linecap="round" stroke-linejoin="round" d="m32.259 46.548.266-2.68.26 2.691"/>
    <path stroke-linecap="round" stroke-linejoin="round" d="m32.496 46.837-2.68-.266 2.692-.26"/>
    <path stroke-linecap="round" stroke-linejoin="round" d="m32.259 46.6.266 2.68.26-2.692"/>
    <path stroke-linecap="round" stroke-linejoin="round" d="m32.548 46.837 2.68-.266-2.691-.26M21.062 72.816l.182-1.832.178 1.84"/>
    <path stroke-linecap="round" stroke-linejoin="round" d="m21.224 73.014-1.832-.182 1.84-.178"/>
    <path stroke-linecap="round" stroke-linejoin="round" d="m21.062 72.852.182 1.832.178-1.84"/>
    <path stroke-linecap="round" stroke-linejoin="round" d="m21.26 73.014 1.832-.182-1.84-.178m85.604-28.077.266-2.68.26 2.692"/>
    <path stroke-linecap="round" stroke-linejoin="round" d="m107.093 44.866-2.68-.265 2.69-.261"/>
    <path stroke-linecap="round" stroke-linejoin="round" d="m106.856 44.63.266 2.68.26-2.692"/>
    <path stroke-linecap="round" stroke-linejoin="round" d="m107.145 44.866 2.68-.265-2.692-.261m-22.89-10.981.266-2.68.26 2.692"/>
    <path stroke-linecap="round" stroke-linejoin="round" d="m84.48 33.648-2.68-.266 2.691-.26"/>
    <path stroke-linecap="round" stroke-linejoin="round" d="m84.243 33.41.266 2.681.26-2.691"/>
    <path stroke-linecap="round" stroke-linejoin="round" d="m84.532 33.648 2.68-.266-2.692-.26"/>
    <path d="M10.76 67.674a.584.584 0 1 1-.002 1.168.584.584 0 0 1 .002-1.168zm12.404-9.129a.84.84 0 1 1 0 1.68.84.84 0 0 1 0-1.68zm95.441-6.285a.84.84 0 1 1-.001 1.68.84.84 0 0 1 .001-1.679zm-11.582 14.815a.84.84 0 1 1-.001 1.68.84.84 0 0 1 .001-1.679zM94.528 44.92a.582.582 0 1 1 0 1.162.582.582 0 0 1 0-1.161zm11.982 8.009a.488.488 0 1 1-.001 0zm13.153 26.926a.841.841 0 1 1-.001.001zm-104.996 3.14a.532.532 0 1 1-.001 1.063.532.532 0 0 1 .001-1.063zM17.84 43.59a.84.84 0 1 1-.001 0zm25.028-6.95a.84.84 0 1 1-.002 1.68.84.84 0 0 1 .002-1.679z"/>
    <path d="M50.368 9.307C52.448 4.49 58.5 1 65.636 1c7.213 0 13.32 3.567 15.335 8.467" stroke-width="1.5" stroke-linecap="round" stroke-linejoin="round"/>
    <path d="M60.914 27.397c-16.413-.64-29.06-4.56-29.06-9.296 0-5.18 15.137-9.386 33.782-9.386 18.644 0 33.781 4.206 33.781 9.386 0 4.754-12.746 8.687-29.251 9.302" stroke-width="1.5" stroke-linecap="round" stroke-linejoin="round"/>
    <path d="M60.81 27.678c-6.484-.59-11.19-2.337-11.19-4.398 0-2.545 7.177-4.611 16.016-4.611 8.839 0 16.015 2.066 16.015 4.61 0 2.082-4.796 3.842-11.375 4.416" stroke-width="1.5" stroke-linecap="round" stroke-linejoin="round"/>
    <path d="M61.974 25.28c-1.245-.301-2.037-.753-2.037-1.257 0-.906 2.554-1.64 5.699-1.64s5.698.734 5.698 1.64c0 .506-.796.959-2.048 1.26m-5.72-2.443L53 41.56M39.646 65.48 25.44 90.96m42.64-67.778L102.4 91.48M40.069 17.423a.733.733 0 1 1 0 1.467.733.733 0 0 1 0-1.467zm7.782-2.94a.733.733 0 1 1 0 1.465.733.733 0 0 1 0-1.465zm8.429-1.756a.733.733 0 1 1-.001 0zm34.842 4.696a.733.733 0 1 0 0 1.467.733.733 0 0 0 0-1.467zm-7.782-2.94a.733.733 0 1 0 0 1.465.733.733 0 0 0 0-1.465zm-8.429-1.756a.733.733 0 1 0 .003 1.467.733.733 0 0 0-.003-1.467zm-9.367-.364a.732.732 0 1 1 0 1.465.732.732 0 0 1 0-1.465z" stroke-width="1.5" stroke-linecap="round" stroke-linejoin="round"/>
  </g>
</svg>

<svg width="132" height="145" viewBox="0 0 132 145" xmlns="http://www.w3.org/2000/svg"><title>Group 129 Copy</title><g stroke="#9BAEB8" fill="none" fill-rule="evenodd"><path d="M96.89 22.058c20.064 11.014 33.675 32.344 33.675 56.828 0 35.755-29.027 64.783-64.782 64.783C30.028 143.669 1 114.64 1 78.886c0-24.504 13.634-45.849 33.723-56.855"/><path d="M17.303 121.752h96.915" stroke-width="1.5" stroke-linecap="round" stroke-linejoin="round"/><path d="M22.04 126.182h87.44M27.196 130.612h77.13M33.67 135.041H97.85M42.826 139.471h45.869" opacity=".6" stroke-linecap="round" stroke-linejoin="round"/><g stroke-linecap="round" stroke-linejoin="round" stroke-width="1.5"><path d="M3.328 86.683h12.848v14.094h11.136v20.083"/><path d="M23.294 100.431V94.57h20.825"/><path d="M39.1 121.166v-18.8l5.351-5.352V60.562h10.841v36.181l5.24 5.24v19.4M76.12 121.414V79.745h12.938v11.17h5.286v30.692"/><path d="M55.4 85.25h15.046v35.472M70.68 102.718h5.356M76.92 82.958h11.635M44.61 64.982h10.605M48.93 55.68l1.019-10.268.998 10.312M50.778 70.321v2.806M48.855 77.738v2.806M50.778 85.155v2.806M48.855 92.572v2.806M45.252 104.74v2.806M33.012 101.106v2.807M33.012 114.244v6.836M54.298 104.74v2.806M64.92 90.797v2.806M99.24 100.157v2.806M104.618 100.157v2.806M109.818 100.157v2.806M115.018 100.157v2.806M120.218 100.157v2.806M99.24 107.437v2.806M104.618 107.437v2.806M109.818 107.437v2.806M115.018 107.437v2.806M65.251 98.95v2.807M65.251 106.844v2.806M65.251 114.753v2.806M59.878 91.023v2.806M49.32 115.757v4.926M107.56 115.757v4.926M82.557 89.262v4.926M82.557 113.151v2.858M88.09 113.151v2.858M21.828 105.273v2.806M21.828 112.5v2.806M16.432 105.273v2.806M10.672 91.775v2.806"/><path d="M44.487 60.617c.168-2.835 2.523-5.085 5.399-5.085s5.231 2.25 5.399 5.085H44.487zM95.11 94.541h22.655l5.057-5.057h6.098"/></g><path stroke-linecap="round" stroke-linejoin="round" d="M32.259 46.548l.266-2.68.26 2.691"/><path stroke-linecap="round" stroke-linejoin="round" d="M32.496 46.837l-2.68-.266 2.692-.26"/><path stroke-linecap="round" stroke-linejoin="round" d="M32.259 46.6l.266 2.68.26-2.692"/><path stroke-linecap="round" stroke-linejoin="round" d="M32.548 46.837l2.68-.266-2.691-.26M21.062 72.816l.182-1.832.178 1.84"/><path stroke-linecap="round" stroke-linejoin="round" d="M21.224 73.014l-1.832-.182 1.84-.178"/><path stroke-linecap="round" stroke-linejoin="round" d="M21.062 72.852l.182 1.832.178-1.84"/><path stroke-linecap="round" stroke-linejoin="round" d="M21.26 73.014l1.832-.182-1.84-.178M106.856 44.577l.266-2.68.26 2.692"/><path stroke-linecap="round" stroke-linejoin="round" d="M107.093 44.866l-2.68-.265 2.69-.261"/><path stroke-linecap="round" stroke-linejoin="round" d="M106.856 44.63l.266 2.68.26-2.692"/><path stroke-linecap="round" stroke-linejoin="round" d="M107.145 44.866l2.68-.265-2.692-.261M84.243 33.359l.266-2.68.26 2.692"/><path stroke-linecap="round" stroke-linejoin="round" d="M84.48 33.648l-2.68-.266 2.691-.26"/><path stroke-linecap="round" stroke-linejoin="round" d="M84.243 33.41l.266 2.681.26-2.691"/><path stroke-linecap="round" stroke-linejoin="round" d="M84.532 33.648l2.68-.266-2.692-.26"/><path d="M10.76 67.674c.322 0 .583.262.583.584 0 .321-.261.583-.583.583-.322 0-.583-.262-.583-.583 0-.322.261-.584.583-.584zM23.164 58.545c.464 0 .84.376.84.84 0 .464-.376.84-.84.84-.464 0-.84-.376-.84-.84 0-.464.376-.84.84-.84zM118.605 52.26c.464 0 .84.377.84.84 0 .465-.376.841-.84.841-.464 0-.84-.376-.84-.84 0-.464.376-.84.84-.84zM107.023 67.075c.464 0 .84.377.84.84 0 .465-.376.841-.84.841-.464 0-.84-.376-.84-.84 0-.464.376-.84.84-.84zM94.528 44.92c.322 0 .582.261.582.583 0 .321-.26.582-.582.582-.321 0-.582-.261-.582-.582 0-.322.261-.582.582-.582zM106.51 52.929c.268 0 .487.218.487.487 0 .27-.219.488-.488.488-.27 0-.488-.218-.488-.488 0-.269.219-.487.488-.487zM119.663 79.855c.463 0 .84.377.84.841 0 .464-.377.84-.84.84-.465 0-.841-.376-.841-.84 0-.464.376-.84.84-.84zM14.667 82.995c.293 0 .531.238.531.532 0 .293-.238.531-.531.531-.294 0-.532-.238-.532-.531 0-.294.238-.532.532-.532zM17.84 43.59c.463 0 .84.376.84.84 0 .464-.377.84-.84.84-.465 0-.841-.376-.841-.84 0-.464.376-.84.84-.84zM42.868 36.64c.464 0 .84.377.84.841 0 .464-.376.84-.84.84-.464 0-.84-.376-.84-.84 0-.464.376-.84.84-.84z"/><path d="M50.368 9.307C52.448 4.49 58.5 1 65.636 1c7.213 0 13.32 3.567 15.335 8.467" stroke-width="1.5" stroke-linecap="round" stroke-linejoin="round"/><path d="M60.914 27.397c-16.413-.64-29.06-4.56-29.06-9.296 0-5.18 15.137-9.386 33.782-9.386 18.644 0 33.781 4.206 33.781 9.386 0 4.754-12.746 8.687-29.251 9.302" stroke-width="1.5" stroke-linecap="round" stroke-linejoin="round"/><path d="M60.81 27.678c-6.484-.59-11.19-2.337-11.19-4.398 0-2.545 7.177-4.611 16.016-4.611 8.839 0 16.015 2.066 16.015 4.61 0 2.082-4.796 3.842-11.375 4.416" stroke-width="1.5" stroke-linecap="round" stroke-linejoin="round"/><path d="M61.974 25.28c-1.245-.301-2.037-.753-2.037-1.257 0-.906 2.554-1.64 5.699-1.64s5.698.734 5.698 1.64c0 .506-.796.959-2.048 1.26M63.566 22.84L53 41.56M39.646 65.48L25.44 90.96M68.08 23.182L102.4 91.48M40.069 17.423c.404 0 .733.328.733.733 0 .404-.329.732-.733.732-.404 0-.733-.328-.733-.732 0-.405.329-.733.733-.733zM47.851 14.483c.405 0 .733.328.733.732 0 .405-.328.734-.733.734-.404 0-.732-.329-.732-.734 0-.404.328-.732.732-.732zM56.28 12.727c.404 0 .732.329.732.734 0 .404-.328.732-.733.732-.404 0-.732-.328-.732-.732 0-.405.328-.734.732-.734zM91.122 17.423c-.404 0-.733.328-.733.733 0 .404.329.732.733.732.404 0 .732-.328.732-.732 0-.405-.328-.733-.732-.733zM83.34 14.483c-.405 0-.733.328-.733.732 0 .405.328.734.733.734.404 0 .732-.329.732-.734 0-.404-.328-.732-.732-.732zM74.911 12.727c-.404 0-.732.329-.732.734 0 .404.328.732.732.732.405 0 .734-.328.734-.732 0-.405-.329-.734-.734-.734zM65.544 12.363c.404 0 .732.328.732.732 0 .404-.328.733-.732.733-.405 0-.733-.329-.733-.733 0-.404.328-.732.733-.732z" stroke-width="1.5" stroke-linecap="round" stroke-linejoin="round"/></g></svg>
